X:1
T:Webster, SM
T:Webster, SM
T:The Christian Harmony, by William Walker, 1873
T:Public Domain Courtesy of the Cyber Hymnal™
C:The Christian Harmony, by William Walker, 1873
Z:Public Domain
Z:Courtesy of the Cyber Hymnal™
%%score ( 1 2 ) ( 3 4 )
L:1/8
Q:1/4=115
M:none
K:G
V:1 treble 
V:2 treble 
V:3 bass 
V:4 bass 
V:1
 z4 [Gd]4 | [Gd]2 [Ac]2 [GB]2 (A[GB]) | [Bd]4 [GB]4 | G2 [GB]2 [Ac]2 (Bc) | [Fd]8 | [Bd]4 A2 A2 | %6
 [GB]2 (AB) [EG]2 [EA]2 | [DB]4 [Dd]4 | [Dd]2 (de) [De]2 [Dd]2 | [DFBd]8 |] %10
V:2
 x8 | x8 | x8 | G2 x2 G2 x2 | x8 | x4 A2 A2 | x2 A2 x4 | x8 | x2 D2 x4 | x8 |] %10
V:3
 z4 [G,,G,]4 | [B,,G,]2 [A,,D,]2 [B,,E,]2 D,2 | [G,,G,]4 [D,G,]4 | [G,B,]2 [D,G,]2 A,2 [B,,G,]2 | %4
 [A,,D,]8 | [D,G,]4 E,2 E,2 | [D,B,]2 ([E,A,][F,B,]) G,2 [E,A,]2 | D,4 [G,,G,]4 | %8
 [B,,G,]2 [B,,G,]2 D,2 [A,,D,]2 | [G,,G,]8 |] %10
V:4
 x8 | x6 D,2 | x8 | x4 (E,D,) x2 | x8 | x4 E,2 E,2 | x4 G,2 x2 | D,4 x4 | x4 (A,,G,,) x2 | x8 |] %10

